**kern	**kern	**kern	**kern	**harm
*staff4	*staff3	*staff2	*staff1	*staff1
=1-	=1-	=1-	=1-	=1-
*clefG2	*clefG2	*clefG2	*clefG2	*
*k[b-e-a-d-]	*k[b-e-a-d-]	*k[b-e-a-d-]	*k[b-e-a-d-]	*
*M4/4	*M4/4	*M4/4	*M4/4	*
*	*	*	*MM160	*
*f:	*f:	*f:	*f:	*f:
4r	4r	4r	1ff	i
4f/	4a-/	4cc\	.	.
4f/	4a-/	4cc\	.	.
4f/	4a-/	4cc\	.	.
=2	=2	=2	=2	=2
4r	4r	4r	2.ccc\	.
4f/	4a-/	4cc\	.	.
4f/	4a-/	4cc\	.	.
4f/	4a-/	4a-/	4ccc\	.
=3	=3	=3	=3	=3
4r	4r	4r	4ddd-\	viio43/V
4f/	4a-/	4bn\	4bbn\	.
4f/	4a-/	4b\	4r	.
4f/	4a-/	4f/	4bb\	.
=4	=4	=4	=4	=4
2en/	2g/	2g/	4ccc\	V6
.	.	.	4gg\	.
2r	2r	2r	4r	.
.	.	.	4gg\	.
=5	=5	=5	=5	=5
!!linebreak:original
4r	4r	4r	[2bb-\	iiom7c
4d-/	4f/	4g/	.	.
2c/	2en/	2b-\	8.bb-\L]	V7
.	.	.	16aa-\Jk	.
.	.	.	8.gg\L	.
.	.	.	16ff\Jk	.
=6	=6	=6	=6	=6
2r	2r	2r	8.een\L	.
.	.	.	16dd-\Jk	.
.	.	.	8.cc\L	.
.	.	.	16b-\Jk	.
8r	8r	8r	8.a-/L	.
16r	16r	16r	.	.
*clefF4	*	*	*	*
16G\	16g/	16g/	16g/Jk	.
8.F\L	8.f/L	8.f/L	8.f/L	.
16En\Jk	16en/Jk	16en/Jk	16en/Jk	.
=7	=7	=7	=7	=7
4F\	4f/	4f/	4f/	i
4D-\	4d-/	4d-/	4d-/	.
4C/	4c/	4c/	4c/	.
*	*clefF4	*	*	*
4BBn/	4Bn\	4Bn/	4Bn/	.
=8	=8	=8	=8	=8
4C/	4c\	4c/	4c/	V
4CC/	4C/	4cc\	4cc\	.
2r	2r	2r	2r	.
=9	=9	=9	=9	=9
4r	4r	4r	1ff	i
*clefG2	*clefG2	*	*	*
4f/	4a-/	4cc\	.	.
4f/	4a-/	4cc\	.	.
4f/	4a-/	4cc\	.	.
=10	=10	=10	=10	=10
!!linebreak:original
4r	4r	4r	2.ccc\	.
4f/	4a-/	4cc\	.	.
4f/	4a-/	4cc\	.	.
4f/	4a-/	4a-/	4ccc\	.
=11	=11	=11	=11	=11
4r	4r	4r	4ddd-\	viio43/V
4f/	4a-/	4bn\	4bbn\	.
4f/	4a-/	4b\	4r	.
4f/	4a-/	4f/	4bb\	.
=12	=12	=12	=12	=12
2en/	2g/	2g/	4ccc\	V6
.	.	.	4ggg\	.
2r	2r	2r	8r	.
.	.	.	16r	.
.	.	.	16B-/	iv
.	.	.	4B-/	.
=13	=13	=13	=13	=13
8r	8r	8r	4d-/	.
16r	16r	16r	.	.
*clefF4	*clefF4	*	*clefF4	*
16BB-/	16B-\	16B-/	.	.
4BB-/	4B-\	4B-/	4B-\	.
4D-\	4d-\	4d-/	8r	.
.	.	.	16r	.
.	.	.	16B-\	.
4BB-/	4B-\	4B-/	4B-\	.
=14	=14	=14	=14	=14
!!pagebreak:original
1r	1r	2r	8.d-\L	iv
.	.	.	16B-\Jk	.
*	*	*	*clefG2	*
.	.	.	8.g/L	viio7
.	.	.	16en/Jk	.
.	.	4r	8.b-/L	.
.	.	.	16g/Jk	.
.	.	8.b-\L	8.dd-\L	.
.	.	16b-\Jk	16dd-\Jk	.
=15	=15	=15	=15	=15
4r	4r	2b-\	2dd-\	.
4BB-/	4F\	.	.	iv
4C/	4F\	4a-/	4cc\	C64
4C/	4G\	4B-/	4en/	V7
=16	=16	=16	=16	=16
4FF/	4F\	4A-/	4f/	i
4r	4r	4r	4r	.
2r	2r	2r	2r	.
=17	=17	=17	=17	=17
1r	1r	1r	1r	.
=18	=18	=18	=18	=18
1r	1r	1r	1r	.
=19	=19	=19	=19	=19
*D-:	*D-:	*D-:	*D-:	*D-:
4r	4r	4r	1g-	IV
4G-\	4B-\	4d-/	.	.
4G-\	4B-\	4d-/	.	.
4G-\	4B-\	4d-/	.	.
=20	=20	=20	=20	=20
!!linebreak:original
4r	4r	4r	2.dd-\	.
4G-\	4B-\	4d-/	.	.
4G-\	4B-\	4d-/	.	.
4G-\	4B-\	4B-/	4dd-\	.
=21	=21	=21	=21	=21
4r	4r	4r	4ee-\	V42
4G-\	4A-\	4c/	4cc\	.
4G-\	4A-\	4c/	4r	.
4G-\	4A-\	4c/	4cc\	.
=22	=22	=22	=22	=22
4r	4r	4r	4dd-\	I
4G-\	4A-\	4c/	4aa-\	V42
4F\	4A-\	4d-/	4r	I6
4r	4r	4a-/	4cc\	V
=23	=23	=23	=23	=23
4r	4r	4r	4dd-\	I
4G-\	4A-\	4c/	4aa-\	V42
4F\	4A-\	4d-/	4r	I6
4r	4r	4a-/	4dd-\	.
=24	=24	=24	=24	=24
4r	4r	4r	4ee-\	ii
4A-\	4B-\	4dn/	4bb-\	V42/ii
4G-\	4B-\	4e-/	4r	ii6
4r	4r	4b-\	4ddn\	V/ii
=25	=25	=25	=25	=25
!!linebreak:original
4r	4r	4r	4ee-\	ii
4A-\	4B-\	4dn/	[4bb-\	V42/ii
4G-\	4B-\	4e-/	8.bb-\L]	ii6
.	.	.	16aa-\Jk	.
8.E-\L	4B-\	8.b-/L	8.gg-\L	.
16F\Jk	.	16a-/Jk	16ff\Jk	.
=26	=26	=26	=26	=26
4G-\	4B-\	4g-/	4ee-\	.
4G-\	4B-\	2b-\	2ee-\	.
*A-:	*A-:	*A-:	*A-:	*A-:
4Gn\	4B-\	.	.	V65
4G\	4B-\	4b-\	4dd-\	.
=27	=27	=27	=27	=27
*	*clefG2	*	*	*
1A-	1c	1e-	8.cc\L	I
.	.	.	16eee-\Jk	.
.	.	.	8.ddd-\L	.
.	.	.	16ccc\Jk	.
.	.	.	8.bb-\L	.
.	.	.	16aa-\Jk	.
.	.	.	8.gg\L	.
.	.	.	16ff\Jk	.
=28	=28	=28	=28	=28
!!pagebreak:original
1G	1B-	1d- 1e-	8.ee-\L	V65
.	.	.	16ddn\Jk	.
.	.	.	8.ee-\L	.
.	.	.	16ff\Jk	.
.	.	.	8.ee-\L	.
.	.	.	16dd-\Jk	.
.	.	.	8.cc\L	.
.	.	.	16b-\Jk	.
=29	=29	=29	=29	=29
1A-	1c	1c 1e-	8.cc\L	I
.	.	.	16ee-\Jk	.
.	.	.	8.dd-\L	.
.	.	.	16cc\Jk	.
.	.	.	8.b-/L	.
.	.	.	16a-/Jk	.
.	.	.	8.g/L	.
.	.	.	16f/Jk	.
=30	=30	=30	=30	=30
1G	1B-	1d- 1e-	8.e-/L	V65
.	.	.	16dn/Jk	.
.	.	.	8.e-/L	.
.	.	.	16f/Jk	.
.	.	.	8.e-/L	.
.	.	.	16d-/Jk	.
.	.	.	8.c/L	.
.	.	.	16B-/Jk	.
=31	=31	=31	=31	=31
!!linebreak:original
2A-\	2c/	2c/ 2e-/	8A-/L	I
.	.	.	8c/	.
.	.	.	8e-/	.
.	.	.	8c/J	.
*	*clefF4	*	*	*
2C/	[2A-\	2e-/	8a-/L	.
.	.	.	8e-/	.
.	.	.	8cc/	.
.	.	.	8a-/J	.
=32	=32	=32	=32	=32
[1D-	1A-_	[1f	8f/L	IV
.	.	.	8an/	.
.	.	.	8b-/	.
.	.	.	8cc/J	.
.	.	.	8dd-\L	.
.	.	.	8ddn\	.
.	.	.	8ee-\	.
.	.	.	8een\J	.
=33	=33	=33	=33	=33
2.D-\]	4A-\]	1f]	8ff\L	.
.	.	.	8ee-\	.
.	4An\	.	8dd-\	.
.	.	.	8cc\J	.
.	4B-\	.	8b-/L	.
.	.	.	8a-/	.
4Dn\	[4B-\	.	8g/	V65/V
.	.	.	8a-/J	.
=34	=34	=34	=34	=34
[1E-	1B-]	[1g	8g\L	V7
.	.	.	8b-\	.
.	.	.	8dd-\	.
.	.	.	8b-\J	.
.	.	.	8gg\L	.
.	.	.	8aa-\	.
.	.	.	8bb-\	.
.	.	.	8ccc\J	.
=35	=35	=35	=35	=35
!!linebreak:original
*	*clefG2	*	*	*
1E-_	1b-	1g]	8ddd-\L	.
.	.	.	8ccc\	.
.	.	.	8bb-\	.
.	.	.	8aa-\J	.
.	.	.	8gg\L	.
.	.	.	8ff\	.
.	.	.	8ee-\	.
.	.	.	8dd-\J	.
=36	=36	=36	=36	=36
1E-_	1c	[1a-	8cc\L	I64
.	.	.	8ee-\	.
.	.	.	8dd-\	.
.	.	.	8cc\J	.
.	.	.	8b-/L	.
.	.	.	8a-/	.
.	.	.	8g/	.
.	.	.	8a-/J	.
=37	=37	=37	=37	=37
1E-_	1dn	1a-]	8dn/L	viiom7/V
.	.	.	8cc/	.
.	.	.	8b-/	.
.	.	.	8a-/J	.
.	.	.	8g/L	.
.	.	.	8f/	.
.	.	.	8e-/	.
.	.	.	8d/J	.
=38	=38	=38	=38	=38
1E-_	4e-/	1g	8e-/L	V
.	.	.	8g/	.
.	4B-/	.	8b-/	.
.	.	.	8g/J	.
*	*clefF4	*	*	*
.	4G\	.	8ee-\L	.
.	.	.	8b-\	.
.	4E-\	.	8gg\	.
.	.	.	8ee-\J	.
=39	=39	=39	=39	=39
!!pagebreak:original
*	*clefG2	*	*	*
1E-]	2.dn/	1a-	8ddn\L	viio/V
.	.	.	8ee-\	.
.	.	.	8ff\	.
.	.	.	8gg\J	.
.	.	.	8aa-\L	.
.	.	.	8ff\	.
.	8f/L	.	8dd\	.
.	8d/J	.	8ff\J	.
=40	=40	=40	=40	=40
8E-\L	8e-/L	8g/L	8ee-\L	V
8Dn\	8dn/	8dn/	8ddn\	.
8E-\	8e-/	8e-/	8ee-\	.
8F\J	8f/J	8f/J	8ff\J	.
8E-/L	8e-/L	8e-/L	8ee-\L	.
8D-/	8d-/	8d-/	8dd-\	.
8C/	8c/	8c/	8cc\	.
8BB-/J	8B-/J	8B-/J	8b-\J	.
=41	=41	=41	=41	=41
4AA-/	4A-/	4A-/	1a-	I
4A-\	4c/	4e-/	.	.
4A-\	4c/	4e-/	.	.
4A-\	4c/	4e-/	.	.
=42	=42	=42	=42	=42
4r	4r	4r	2.ee-\	.
4A-\	4c/	4cc\	.	.
4A-\	4c/	4cc\	.	.
4A-\	4c/	4cc\	4ee-\	.
=43	=43	=43	=43	=43
4r	4r	4r	4ff\	V42/V
4A-\	4f/	4b-\	4ddn\	.
4A-\	4f/	4b-\	4r	.
4A-\	4f/	4b-\	4dd\	.
=44	=44	=44	=44	=44
!!linebreak:original
4r	4r	4r	4ee-\	V
4G\	4e-/	4b-\	4b-\	.
4G\	4e-/	4b-\	4r	.
4A-\	4e-/	4cc\	4cc\	I
=45	=45	=45	=45	=45
2.F\	2.f/	2.a-/	2ee-\	vi7
.	.	.	4dd-\	.
4E-\	4e-/	4g/	4cc\	iii6
=46	=46	=46	=46	=46
1D-	1d-	2.f/	4b-\	ii6
.	.	.	4ff\	.
.	.	.	4dd-\	.
.	.	4d-/	4b-\	.
=47	=47	=47	=47	=47
4E-\	4e-/	2c/	2a-/	C64
4E-\	4e-/	.	.	.
4E-\	4G/	8.d-/L	8.b-/L	V7
.	.	16c/Jk	16a-/Jk	.
4E-\	4G/	8.d-/L	8.b-\L	.
.	.	16e-/Jk	16cc\Jk	.
=48	=48	=48	=48	=48
2.A-\	4A-/	4c/	4a-/	I
.	4a-/	4r	4cc\	.
.	4cc\	4r	4ee-\	.
4A-\	4r	4cc\	4r	.
=49	=49	=49	=49	=49
4B-\	4r	4dd-\	4r	V7
4E-\	4b-\	4r	4gg\	.
4r	4dd-\	4r	4bb-\	.
4G\	4r	4b-\	4r	.
=50	=50	=50	=50	=50
4A-\	4r	4cc\	4r	I
4AA-/	4a-/	4r	4cc\	.
4r	4cc\	4r	4ee-\	.
4A-\	4r	4cc\	4r	.
=51	=51	=51	=51	=51
!!linebreak:original
4B-\	4r	4dd-\	4r	V7
4E-\	4b-\	4r	4gg\	.
4r	4dd-\	4r	4bb-\	.
*clefG2	*	*	*	*
4G/	4r	4b-\	4r	.
=52	=52	=52	=52	=52
4A-/	4r	4cc\	4r	I
4dn/	4f/	4a-/	4cc-\	viio7/V
4d/	4f/	4a-/	4cc-\	.
4d/	4f/	4a-/	4cc-\	.
=53	=53	=53	=53	=53
2.d-/	2.e-/	2.g/	2.b-\	V42
4d-/	8e-/L	4g/	8ff\L	.
.	8b-/J	.	8ee-\J	.
=54	=54	=54	=54	=54
4c/	4a-/	4a-/	4ee-\	I6
4d-/	8e-/L	4g/	8ff\L	V42
.	8b-/J	.	8ee-\J	.
4c/	4a-/	4a-/	4ee-\	I6
4d-/	8e-/L	4g/	8ff\L	V42
.	8b-/J	.	8ee-\J	.
=55	=55	=55	=55	=55
!!pagebreak:original
4c/	4a-/	4a-/	4ee-\	I6
4d-/	8e-/L	4g/	8ff\L	V42
.	8b-/J	.	8ee-\J	.
4c/	4a-/	4a-/	8ff\L	I6
.	.	.	8ee-\	.
4d-/	8e-/L	4g/	8ff\	V42
.	8b-/J	.	8ee-\J	.
=56	=56	=56	=56	=56
2c/	[1a-	2a-/	[4.ccc\	I6
.	.	.	16ccc\LL]	.
.	.	.	16gg\JJ	.
*clefF4	*	*clefF4	*	*
2C/	.	[2A-\	[4.aa-\	.
.	.	.	16aa-\LL]	.
.	.	.	16een\JJ	.
=57	=57	=57	=57	=57
[1D-	1a-_	1A-_	[4.een\	IV
.	.	.	16ee\LL]	.
.	.	.	16gg\JJ	.
.	.	.	8.ee\L	.
.	.	.	16gg\Jk	.
.	.	.	8.ee\L	.
.	.	.	16gg\Jk	.
=58	=58	=58	=58	=58
!!linebreak:original
1D-]	4a-/]	4A-\]	8een\L	.
.	.	.	8ff\	.
.	4g-/	4An\	8cc\	viio42/ii
.	.	.	8dd-\J	.
.	4f/	4B-\	8an\L	ii6
.	.	.	8b-\	.
*	*	*clefG2	*	*
.	8d-/L	8f/L	8dd-\	.
.	8f/J	8d-/J	8b-\J	.
=59	=59	=59	=59	=59
4E-\	2.e-/	2.c/	2.a-/	C64
4E-\	.	.	.	.
4E-\	.	.	.	.
*	*clefF4	*	*	*
4E-\	4G\	8e-/L	8cc\L	.
.	.	8d-/J	8b-\J	V7
=60	=60	=60	=60	=60
4A-\	4A-\	4c/	8.a-/L	I
.	.	.	16e-/Jk	.
4r	4r	4r	8.f/L	.
.	.	.	16g/Jk	.
2r	2r	2r	8.a-/L	.
.	.	.	16b-/Jk	.
.	.	.	8.cc\L	.
.	.	.	16dd-\Jk	.
=61	=61	=61	=61	=61
!!linebreak:original
1r	8r	2r	8.ee-\L	V
.	16r	.	.	.
.	16Dn\	.	16ff\Jk	.
.	8.E-\L	.	8.ee-\L	.
.	16F\Jk	.	16ddn\Jk	.
.	8.G\L	8r	4ee-\	.
.	.	16r	.	.
.	16A-\Jk	16f/	.	.
.	8.B-/L	8.g/L	4ee-\	.
*	*clefG2	*	*	*
.	16c/Jk	16a-/Jk	.	.
=62	=62	=62	=62	=62
1r	8.d-/L	8.b-\L	[1ee-	V42
.	16e-/Jk	16cc\Jk	.	.
.	8.f/L	8.dd-\L	.	.
.	16e-/Jk	16cc\Jk	.	.
*	*clefF4	*	*	*
.	8.d-\L	8.b-/L	.	.
.	16c\Jk	16a-/Jk	.	.
.	8.B-\L	8.g/L	.	.
.	16A-\Jk	16f/Jk	.	.
=63	=63	=63	=63	=63
8r	4G\	4e-/	8.ee-\L]	.
16r	.	.	.	.
16DDn/	.	.	16ff\Jk	.
8.EE-/L	4r	4r	8.ee-\L	.
16FF/Jk	.	.	16ddn\Jk	.
8.GG/L	2r	8r	4ee-\	.
.	.	16r	.	.
16AA-/Jk	.	16f/	.	.
8.BB-/L	.	8.g/L	4ee-\	.
16C/Jk	.	16a-/Jk	.	.
=64	=64	=64	=64	=64
!!pagebreak:original
8.D-/L	1r	8.b-/L	[1ee-	.
16C/Jk	.	16an/Jk	.	.
8.D-\L	.	8.b-\L	.	.
16E-\Jk	.	16cc\Jk	.	.
8.F\L	.	4dd-\	.	.
16G\Jk	.	.	.	.
8.A-\L	.	4g/	.	.
16B-\Jk	.	.	.	.
=65	=65	=65	=65	=65
*	*clefG2	*	*	*
[1c	[1e-	[1a-	8.ee-\L]	I6
.	.	.	16gg\Jk	.
.	.	.	8.aa-\L	.
.	.	.	16bb-\Jk	.
.	.	.	8.ccc\L	.
.	.	.	16ddd-\Jk	.
.	.	.	8.eee-\L	.
.	.	.	16fff\Jk	.
=66	=66	=66	=66	=66
*	*	*	*clefG2	*
4c\]	4e-/]	4a-/]	2ggg-\	V65/IV
4c\	4e-/	4a-/	.	.
4c\	4f/	4a-/	4fff\	.
4c\	4g-/	4a-/	4eeen\	.
=67	=67	=67	=67	=67
2d-\	2f/	2a-/	8.fff\L	IV
.	.	.	16ggg\Jk	.
.	.	.	8.aaa-\L	.
.	.	.	16ggg\Jk	.
2r	2r	2r	4aaa-\	.
.	.	.	4bbb-\	ii65
=68	=68	=68	=68	=68
!!linebreak:original
4r	4r	4r	1cccc-	viio7/V
4dn\	4a-/	4ff\	.	.
4d\	4a-/	4ff\	.	.
4d\	4a-/	4ff\	.	.
=69	=69	=69	=69	=69
4r	4r	4r	1cccc	C64
4e-\	4a-/	4cc\	.	.
4e-\	4a-/	4cc\	.	.
4e-\	4a-/	4cc\	.	.
=70	=70	=70	=70	=70
*	*	*	*clefG2	*
4r	4r	4r	1G	V7
*clefF4	*clefF4	*clefF4	*	*
4EE-/	4D-\	4B-\	.	.
4EE-/	4D-\	4B-\	.	.
4EE-/	4D-\	4B-\	.	.
=71	=71	=71	=71	=71
2AA-/	2C/	2A-\	8A-/L	I
.	.	.	8e-/	.
.	.	.	8c/	.
.	.	.	8a-/J	.
2r	2r	2r	8e-/L	.
.	.	.	8cc/	.
.	.	.	8a-/	.
.	.	.	8ee-/J	.
=72	=72	=72	=72	=72
*	*	*clefG2	*	*
2EE-/	8D-\L	8G/L	2.ee-\	V7
.	8G\	8d-/	.	.
.	8D-\	8B-/	.	.
.	8d-\J	8b-/J	.	.
2r	8B-\L	8d-/L	.	.
.	8d-\	8f/	.	.
.	8c\	8e-/	4G/	.
.	8B-\J	8d-/J	.	.
=73	=73	=73	=73	=73
!!linebreak:original
2AA-/	4A-\	4c/	8A-/L	I
.	.	.	8e-/	.
.	4r	4r	8c/	.
.	.	.	8a-/J	.
2r	2r	2r	8e-/L	.
.	.	.	8cc/	.
.	.	.	8a-/	.
.	.	.	8ee-/J	.
=74	=74	=74	=74	=74
2EE-/	8D-\L	8G/L	2.ee-\	V7
.	8G\	8d-/	.	.
.	8D-\	8B-/	.	.
.	8d-\J	8b-/J	.	.
2r	8B-\L	8d-/L	.	.
.	8d-\	8f/	.	.
.	8c\	8e-/	4g/	.
.	8B-\J	8d-/J	.	.
=75	=75	=75	=75	=75
2AA-/	4A-\	4c/	8A-/L	I
.	.	.	8e-/	.
.	4r	4r	8c/	.
.	.	.	8a-/J	.
2r	2r	2r	8e-/L	.
.	.	.	8cc/	.
.	.	.	8a-/	.
.	.	.	8ee-/J	.
=76	=76	=76	=76	=76
*f:	*f:	*f:	*f:	*f:
1C	8G\L	8B-/L	1een	V7
.	8B-\	8g/	.	.
.	8G\	8en/	.	.
*	*clefG2	*	*	*
.	8g\J	8b-/J	.	.
.	8en/L	8g\L	.	.
.	8b-/	8dd-\	.	.
.	8a-/	8cc\	.	.
.	8g/J	8b-\J	.	.
*-	*-	*-	*-	*-
